svg/fluentui-system-icons/ic_fluent_video_chat_20_regular.svg

<svg width="20" height="20" viewBox="0 0 20 20" fill="none" xmlns="http://www.w3.org/2000/svg">
<path d="M5.5 3C4.11929 3 3 4.11929 3 5.5V8.60013C3.31679 8.43812 3.65135 8.30593 4 8.20726V5.5C4 4.67157 4.67157 4 5.5 4H12.5C13.3284 4 14 4.67157 14 5.5V12.5C14 13.3284 13.3284 14 12.5 14H10.9784C10.9474 14.3434 10.8849 14.6777 10.7938 15H12.5C13.8807 15 15 13.8807 15 12.5V11.5L17.4 13.3C18.0592 13.7944 19 13.324 19 12.5V5.49998C19 4.67594 18.0592 4.20556 17.4 4.69998L15 6.49998V5.5C15 4.11929 13.8807 3 12.5 3H5.5ZM15 7.74998L18 5.49998V12.5L15 10.25V7.74998ZM5.5 18C7.98528 18 10 15.9853 10 13.5C10 11.0147 7.98528 9 5.5 9C3.01472 9 1 11.0147 1 13.5C1 14.2918 1.20449 15.0358 1.56353 15.6821L1.01892 17.4707C0.923578 17.7838 1.21625 18.0765 1.52936 17.9812L3.31846 17.4368C3.96465 17.7956 4.70846 18 5.5 18ZM3 12.5C3 12.2239 3.22386 12 3.5 12H7.5C7.77614 12 8 12.2239 8 12.5C8 12.7761 7.77614 13 7.5 13H3.5C3.22386 13 3 12.7761 3 12.5ZM3.5 15C3.22386 15 3 14.7761 3 14.5C3 14.2239 3.22386 14 3.5 14H5.5C5.77614 14 6 14.2239 6 14.5C6 14.7761 5.77614 15 5.5 15H3.5Z" fill="#212121"/>
</svg>

<svg xmlns="http://www.w3.org/2000/svg" width="20" height="20"><path d="M5.5 3A2.5 2.5 0 0 0 3 5.5v3.1a5.463 5.463 0 0 1 1-.393V5.5A1.5 1.5 0 0 1 5.5 4h7A1.5 1.5 0 0 1 14 5.5v7a1.5 1.5 0 0 1-1.5 1.5h-1.522a5.489 5.489 0 0 1-.184 1H12.5a2.5 2.5 0 0 0 2.5-2.5v-1l2.4 1.8a1 1 0 0 0 1.6-.8v-7a1 1 0 0 0-1.6-.8L15 6.5v-1A2.5 2.5 0 0 0 12.5 3h-7ZM15 7.75l3-2.25v7l-3-2.25v-2.5ZM5.5 18a4.5 4.5 0 1 0-3.936-2.318l-.545 1.789a.41.41 0 0 0 .51.51l1.79-.544A4.48 4.48 0 0 0 5.5 18ZM3 12.5a.5.5 0 0 1 .5-.5h4a.5.5 0 0 1 0 1h-4a.5.5 0 0 1-.5-.5Zm.5 2.5a.5.5 0 0 1 0-1h2a.5.5 0 0 1 0 1h-2Z"/></svg>
